!!!COM: Bach, Johann Sebastian
!!!OTA: Das wohltemperirte Clavier
!!!OPR: Das wohltemperierte Klavier
!!!OTL: Fuga 1, Vol. 2
!!!XEN: The Well-Tempered Clavier, Volume 2, Fugue 1.
!!!ONB: C major, 3-part
!!!SCT: BWV 870b
!!!YEC: Copyright 1994, David Huron
!!!YEM: Rights to all derivative electronic formats reserved.
!!!RNB: The texture increases to four voices in the final four measures.
**kern	**kern	**kern
*staff2	*staff1	*staff1
*clefF4	*clefG2	*clefG2
*k[]	*k[]	*k[]
*M2/4	*M2/4	*M2/4
*C:	*C:	*C:
*MM102	*MM102	*MM102
=1	=1	=1
2r	8r	2r
.	16g	.
.	16f	.
.	8g	.
.	8c	.
=2	=2	=2
2r	4a	2r
.	4g	.
=3	=3	=3
2r	8r	2r
.	16f	.
.	16e	.
.	16f	.
.	16g	.
.	16e	.
.	16f	.
=4	=4	=4
2r	16d	2r
.	16f	.
.	16e	.
.	16f	.
.	16g	.
.	16a	.
.	16f	.
.	16g	.
=5	=5	=5
2r	16e	8r
.	16d	.
.	16e	16cc
.	16f	16b
.	16e	8cc
.	16f	.
.	16d	8g
.	16e	.
=6	=6	=6
2r	16c	4ee
.	16B	.
.	16c	.
.	16d	.
.	16c	4dd
.	16d	.
.	16B	.
.	16c	.
=7	=7	=7
2r	16A	8r
.	16B	.
.	16c	16cc
.	16d	16b
.	16e	16cc
.	16f#	16dd
.	[8g	16b
.	.	16cc
=8	=8	=8
2r	8g]	16a
.	.	16cc
.	16f#	16b
.	16e	16cc
.	4f#	16dd
.	.	16ee
.	.	16cc
.	.	16dd
=9	=9	=9
8r	[2g	16b
.	.	16a
16G	.	16b
16F	.	16cc
8G	.	16b
.	.	16cc
8C	.	16a
.	.	16b
=10	=10	=10
4A	16g]	8.cc
.	16e	.
.	[8f	.
.	.	16a
4G	16f]	8.b-
.	16d	.
.	[8e	.
.	.	16g
=11	=11	=11
8r	8e]	4a
16F	8d	.
16E	.	.
16F	4g	8bn
16G	.	.
16E	.	[8cc
16F	.	.
=12	=12	=12
16D	16f	8cc]
16F	16a	.
16E	16g	4cc
16F	16a	.
16G	4d	.
16A	.	.
16F	.	8b
16G	.	.
=13	=13	=13
16E	8c	8cc
16D	.	.
16E	8r	16gg
16F	.	16ff
16E	4r	8gg
16F	.	.
16D	.	8cc
16E	.	.
=14	=14	=14
16F	8r	4aa
16E	.	.
16F	16cc	.
16G	16b	.
16F	8cc	4gg
16G	.	.
16E	8g	.
16F	.	.
=15	=15	=15
16D	4dd	8ff#
16C#	.	.
16D	.	16aa
16E	.	16gg
16F#	4cc	8aa
16G	.	.
16E	.	8dd
16F#	.	.
=16	=16	=16
16G	8b	4bb
16F#	.	.
16G	16dd	.
16A	16cc	.
16G	8dd	4aa
16A	.	.
16Fn	8a	.
16G	.	.
=17	=17	=17
16E	4ee	8gg#
16D	.	.
16E	.	16bb
16F#	.	16aa
16G#	4dd	8bb
16A	.	.
16F#	.	8ee
16G#	.	.
=18	=18	=18
16A	8cc	[2ccc
16G#	.	.
16A	16ee	.
16B	16dd	.
16A	8ee	.
16B	.	.
16Gn	8aa	.
16A	.	.
=19	=19	=19
16F#	[2dd	8ccc]
16G	.	.
16E	.	8ccc
16F#	.	.
16G	.	8bb
16A	.	.
16B	.	8gg
16G	.	.
=20	=20	=20
16c	8dd]	4ee
16B	.	.
16c	16cc	.
16d	16b	.
16c	8a	8ff#
16d	.	.
16B	[8b	[8gg
16c	.	.
=21	=21	=21
2d	8b]	8gg]
.	16a	16ff#
.	16g	16ee
.	8a	8.ff#
.	8d	.
.	.	16gg
=22	=22	=22
8G	4b	8gg
16g	.	8ee
16fn	.	.
16g	4a	8cc#
16a	.	.
16f	.	[8dd
16g	.	.
=23	=23	=23
2e	8r	16dd]
.	.	16gg
.	16g	16bb-
.	16f	16aa
.	16g	16gg
.	16a	16ff
.	16f	16ee
.	16g	16dd
=24	=24	=24
8r	16e	8cc#
.	16g	.
8d	16f	4dd
.	16g	.
8F	16a	.
.	16b-	.
8A	16g	8cc#
.	16a	.
=25	=25	=25
8D	16f	8r
.	16e	.
8r	16f	16dd
.	16g	16cc#
4r	16f	8dd
.	16g	.
.	16e	8a
.	16f	.
=26	=26	=26
2r	16d	4ff
.	16c	.
.	16d	.
.	16e	.
.	16d	4ee
.	16e	.
.	16c	.
.	16d	.
=27	=27	=27
2r	16B	8r
.	16c	.
.	16d	16dd
.	16e	16cc
.	16f#	16dd
.	16g#	16ee
.	[8a	16cc
.	.	16dd
=28	=28	=28
2r	8a]	16b
.	.	16dd
.	16g#	16cc
.	16f#	16dd
.	4g#	16ee
.	.	16ffn
.	.	16dd
.	.	16ee
=29	=29	=29
2r	16a	8cc
.	16g#	.
.	16a	16ee
.	16b	16dd
.	16a	8ee
.	16b	.
.	16gn	8cc
.	16a	.
=30	=30	=30
2r	16f#	8aa
.	16e	.
.	16f#	8cc
.	16g	.
.	16f#	8a
.	16g	.
.	16e	8dd
.	16f#	.
=31	=31	=31
2r	16g	8b
.	16f#	.
.	16g	16dd
.	16a	16cc
.	16g	8dd
.	16a	.
.	16fn	8b
.	16g	.
=32	=32	=32
2r	16e	8gg
.	16d	.
.	16e	8b-
.	16f	.
.	16e	8g
.	16f	.
.	16d	8cc
.	16e	.
=33	=33	=33
2r	16f	8a
.	16e	.
.	16f	16dd
.	16g	16cc
.	16f	16dd
.	16g	16ee
.	16e	16cc
.	16f	16dd
=34	=34	=34
2r	8d	16b
.	.	16a
.	16g	16b
.	16f	16cc
.	16g	16b
.	16a	16cc
.	16f	16a
.	16g	16b
=35	=35	=35
2r	16e	8g
.	16d	.
.	16e	16cc
.	16f	16b
.	16e	16cc
.	16f	16dd
.	16d	16b-
.	16e	16cc
=36	=36	=36
2r	8c	16a
.	.	16g
.	16f	16a
.	16e	16b-
.	16f	16a
.	16g	16b-
.	16e	16g
.	16f	16a
=37	=37	=37
2r	16d	[2fT
.	16c	.
.	16d	.
.	16e	.
.	16d	.
.	16e	.
.	16c	.
.	16d	.
=38	=38	=38
2r	16B	8f]
.	16A	.
.	16B	16dd
.	16c	16cc
.	16B	8dd
.	16c	.
.	16A	8f
.	16B	.
=39	=39	=39
8r	4.c	16e
.	.	16d
16C	.	16e
16BB	.	16f
8C	.	16e
.	.	16f
8GG	[8B	16d
.	.	16e
=40	=40	=40
4E	16B]	8.c
.	16B	.
.	[8A	.
.	.	16c
4D	16A]	8.B
.	16A	.
.	[8G	.
.	.	16B
=41	=41	=41
8r	8G]	4.A
16C	8G	.
16BB	.	.
16C	8F#	.
16D	.	.
16BB	[8G	8B
16C	.	.
=42	=42	=42
16AA	16G]	4.c
16C	16F#	.
16BB	16G	.
16C	16E	.
16D	[4F#	.
16E	.	.
16C	.	8A
16D	.	.
=43	=43	=43
16BB	8F#]	4.d
16D	.	.
16C	8B	.
16D	.	.
16E	[4G	.
16Fn	.	.
16D	.	8B
16E	.	.
=44	=44	=44
16C	8G]	4.e
16E	.	.
16D	8c	.
16E	.	.
16F	[4A	.
16G	.	.
16E	.	8c
16F	.	.
=45	=45	=45
16D	8A]	4.f
16F	.	.
16E	8d	.
16F	.	.
16G	[4B	.
16A	.	.
16F	.	8d
16G	.	.
=46	=46	=46
16E	8B]	4g
16D	.	.
16E	8B	.
16F	.	.
16E	8c	8a
16F	.	.
16D	8d	8b
16E	.	.
=47	=47	=47
16C	8e	[2cc
16D	.	.
16E	16g	.
16D	16f	.
16C	8g	.
16BB-	.	.
16AA	8c	.
16GG	.	.
=48	=48	=48
16FF	4a	2cc_
16EE	.	.
16FF	.	.
16GG	.	.
16FF	4g	.
16GG	.	.
16EE	.	.
16FF	.	.
=49	=49	=49
16DD	8r	2cc]
16AA	.	.
16BB	16f	.
16C	16e	.
16D	16f	.
16E	16g	.
16F	16e	.
16D	16f	.
=50	=50	=50
[2G	16d	4cc
.	16f	.
.	16e	.
.	16f	.
.	16g	4b
.	16a	.
.	16f	.
.	16g	.
=51	=51	=51
2G_	16e	8r
.	16d	.
.	16e	16cc
.	16f	16b
.	16e	8cc
.	16f	.
.	16d	8g
.	16e	.
=52	=52	=52
2G]	16c	4ee
.	16B	.
.	16c	.
.	16d	.
.	16c	4dd
.	16d	.
.	16B	.
.	16c	.
=53	=53	=53
4r	16A	8r
.	16B	.
.	16c	16cc
.	16d	16b
8r	16e	16cc
.	16f#	16dd
8B	[8g	16b
.	.	16cc
=54	=54	=54
8c	8g]	16a
.	.	16cc
8A	4g	16b
.	.	16cc
8d	.	16dd
.	.	16ee
8D	8f#	16cc
.	.	16dd
=55	=55	=55
16GG	4g	8b
16FF#	.	.
16GG	.	16dd
16AA	.	16cc
16BB	4r	8dd
16C	.	.
16AA	.	8g
16BB	.	.
=56	=56	=56
16C	8r	4ee
16BB	.	.
16C	16g	.
16D	16f	.
16C	8g	4dd
16D	.	.
16BB	8d	.
16C	.	.
=57	=57	=57
16AA	4a	8cc
16GG#	.	.
16AA	.	16ee
16BB	.	16dd
16C	4g	8ee
16D	.	.
16BB	.	8a
16C	.	.
=58	=58	=58
16D	8f	4ff
16C	.	.
16D	16a	.
16E	16g	.
16D	8a	4ee
16E	.	.
16C	8e	.
16D	.	.
=59	=59	=59
16BB	4b	8dd
16AA	.	.
16BB	.	16ff
16C	.	16ee
16D	4a	8ff
16E	.	.
16C	.	8b
16D	.	.
=60	=60	=60
16E	8g	4gg
16D	.	.
16E	16b	.
16F	16a	.
16E	8b	4ff
16F	.	.
16D	8g	.
16E	.	.
=61	=61	=61
16C	4cc	8ee
16BB	.	.
16C	.	8ff
16D	.	.
16E	4b-	[4gg
16F	.	.
16D	.	.
16E	.	.
=62	=62	=62
16F	2a	4gg]
16G	.	.
16F	.	.
16E	.	.
16D	.	[4ff
16C	.	.
16BB	.	.
16AA	.	.
=63	=63	=63
16BB	2g	4ff]
16GG	.	.
16AA	.	.
16BB	.	.
16C	.	[4ee
16D	.	.
16BB	.	.
16C	.	.
=64	=64	=64
16AA	[2f	4ee]
16C	.	.
16BB	.	.
16C	.	.
16D	.	8dd
16E	.	.
16F	.	8cc
16D	.	.
=65	=65	=65
16G	4f]	8b
16A	.	.
16F	.	8b
16G	.	.
16A	4e	[4cc
16B	.	.
16G	.	.
16A	.	.
=66	=66	=66
16F	[4d	4cc]
16G	.	.
16E	.	.
16F	.	.
16G	16d]	4b
16A	16f	.
16F	16e	.
16G	16d	.
=67	=67	=67
8E	16g	8cc
.	16a	.
8F	16f	8dd
.	16g	.
8G	8e	16g
.	.	8cc
8G#	8d	.
.	.	16b
=68	=68	=68
8AA	[2c	16cc
.	.	16f
16Gn	.	16e
16F	.	16d
8G	.	16e
.	.	16f
8C	.	16d
.	.	16e
=69	=69	=69
4A	2c_	16f
.	.	16e
.	.	16f
.	.	16g
4G	.	16f
.	.	16g
.	.	16e
.	.	16f
=70	=70	=70
8r	2c_	16d
.	.	16c
16F	.	16d
16E	.	16e
8F	.	16d
.	.	16e
8D	.	16c
.	.	16d
=71	=71	=71
4G	8c]	16e
.	.	16d
.	4c	16e
.	.	16f
4F	.	16e
.	.	16f
.	8B	16d
.	.	16e
=72	=72	=72
16E	8c	[2c
16D	.	.
16E	16G	.
16F	16F	.
16E	8G	.
16F	.	.
16D	8C	.
16E	.	.
=73	=73	=73
16F	4A	2c_
16E	.	.
16F	.	.
16G	.	.
16F	4G	.
16G	.	.
16E	.	.
16F	.	.
=74	=74	=74
16D	8r	2c_
16C	.	.
16D	16F	.
16E	16E	.
16D	8F	.
16C	.	.
16BB	8D	.
16AA	.	.
=75	=75	=75
16GG	4G	8c]
16FF	.	.
16GG	.	8B
16AA	.	.
16GG	8A	8c
16FF	.	.
16EE	8B	8d
16DD	.	.
=76	=76	=76
16CC	8c	8e
16C	.	.
16E	16B-	16g
16C	16A	16f
16CC	8B-	8g
16C	.	.
16G	8c	8e
16C	.	.
=77	=77	=77
16CC	4f	4a
16DD	.	.
16EE	.	.
16FF	.	.
16GG	4e	4g
16AA	.	.
16BB	.	.
16C	.	.
=78	=78	=78
16CC	2r	8r
16C	.	.
16D	.	16f
16C	.	16e
16CC	.	8f
16C	.	.
16F	.	8d
16C	.	.
=79	=79	=79
16BB	8r	4g
16C	.	.
16BB	16d	.
16AA	16c	.
16GG	8d	4f
16FF	.	.
16EE	8G	.
16DD	.	.
*	*^	*
!! Four voice material continues to the end:
=80	=80	=80	=80
16CC	8r	8c	8e
16C	.	.	.
16D	8B	8f	8a-
16C	.	.	.
16E	8c	8e	8g
16C	.	.	.
16F	8d	8a-	8b
16C	.	.	.
=81	=81	=81	=81
16G	8e	8g	8cc
16C	.	.	.
16A-	8B	8d	8f
16C	.	.	.
16G	8c	8c	8e
16C	.	.	.
16BB	8e	8e	8cc
16C	.	.	.
=82	=82	=82	=82
8FF	8An	8d	8d
8r	8r	8r	8cc
8GG	8G	8d	8f
8r	8r	8r	8b
=83	=83	=83	=83
2CC	2c	2e 2g	2cc
==	==	==	==
*-	*-	*-	*-
!!!CDT: 1685/3/-1750/7/28
!!!OCY: Deutschland
!!!PPP: Leipzig
!!!ODT: 1738//-1742//
!!!PDT: 1739//-1742//
!!!AFR: fuga; fugue
!!!AST: polyphony
!!!AMT: simple duple
!!!SCA: Bach-Werke-Verzeichnis
!!!YOR: Bach Gesellschaft
!!!SMS: British Library, various
!!!AIN: cemba; clavi
!!!EEV: 1.0
!!!RDT: 1986 November 25
!!!YER: 1994 August 10
!!!EFL: 25/48
!!!VTS: 3782348007
